starter-code/images/mountain-flag.svg

<?xml version="1.0" encoding="UTF-8" standalone="no"?>
<svg width="122px" height="122px" viewBox="0 0 122 122" version="1.1" xmlns="http://www.w3.org/2000/svg" xmlns:xlink="http://www.w3.org/1999/xlink">
    <title>mountain-flag</title>
    <defs></defs>
    <g stroke="none" stroke-width="1" fill="none" fill-rule="evenodd">
        <g id="mountain-flag" fill-rule="nonzero">
            <circle id="Oval" fill="#F09233" cx="61" cy="61" r="61"></circle>
            <path d="M70.707,79.293 C71.0973819,79.6834999 71.0973819,80.3165001 70.707,80.707 L66.707,84.707 C66.3165001,85.0973819 65.6834999,85.0973819 65.293,84.707 L62,81.414 L56.707,86.707 C56.3165001,87.0973819 55.6834999,87.0973819 55.293,86.707 L51,82.414 L45.707,87.707 C45.3165001,88.0973819 44.6834999,88.0973819 44.293,87.707 L41.823,85.237 C41.4442958,84.8443546 41.4501524,84.2206449 41.8361628,83.83518 C42.2221733,83.4497152 42.8458907,83.4447409 43.238,83.824 L45,85.586 L50.293,80.293 C50.6834999,79.9026181 51.3165001,79.9026181 51.707,80.293 L56,84.586 L61.293,79.293 C61.6834999,78.9026181 62.3165001,78.9026181 62.707,79.293 L66,82.586 L68.586,80 L56,67.414 L32.707,90.707 C32.5198649,90.8952092 32.2654096,91.0010349 32,91.0010349 C31.7345904,91.0010349 31.4801351,90.8952092 31.293,90.707 C30.9026181,90.3165001 30.9026181,89.6834999 31.293,89.293 L55,65.586 L55,32 C55,31.4477153 55.4477153,31 56,31 L72,31 C72.5522847,31 73,31.4477153 73,32 L73,52 C73,52.5522847 72.5522847,53 72,53 L60,53 C59.4477153,53 59,52.5522847 59,52 C59,51.4477153 59.4477153,51 60,51 L71,51 L71,43 L60,43 C59.4477153,43 59,42.5522847 59,42 C59,41.4477153 59.4477153,41 60,41 L71,41 L71,33 L57,33 L57,65.586 L70.707,79.293 Z M90.707,89.293 L73.707,72.293 C73.3165001,71.9026181 72.6834999,71.9026181 72.293,72.293 L69.809,74.777 C69.5428656,75.0265645 69.4337674,75.4012617 69.5243337,75.7546845 C69.6149,76.1081073 69.8907557,76.3841582 70.2441143,76.4749745 C70.597473,76.5657909 70.9722473,76.4569578 71.222,76.191 L73,74.415 L89.293,90.708 C89.4801351,90.8962092 89.7345904,91.0020349 90,91.0020349 C90.2654096,91.0020349 90.5198649,90.8962092 90.707,90.708 C91.0973819,90.3175001 91.0973819,89.6844999 90.707,89.294 L90.707,89.293 Z M76,45 C75.4477153,45 75,45.4477153 75,46 C75,46.5522847 75.4477153,47 76,47 L81.322,47 L84.522,55 L70,55 C69.4477153,55 69,55.4477153 69,56 C69,56.5522847 69.4477153,57 70,57 L86,57 C86.3322527,57.0005874 86.6431005,56.8361144 86.8295239,56.5610898 C87.0159473,56.2860652 87.0535987,55.9364081 86.93,55.628 L83.076,46 L86.928,36.372 C87.0498989,36.0639079 87.0117807,35.7154945 86.8261492,35.4410478 C86.6405176,35.1666011 86.3313272,35.0015368 86,35 L76,35 C75.4477153,35 75,35.4477153 75,36 C75,36.5522847 75.4477153,37 76,37 L84.523,37 L81.323,45 L76,45 Z M79.75,84.835 L78,86.585 L73.25,81.835 C72.8595347,81.4442586 72.2262415,81.4440347 71.8355,81.8345 C71.4447586,82.2249653 71.4445347,82.8582585 71.835,83.249 L77.293,88.706 C77.4801351,88.8942092 77.7345904,89.0000349 78,89.0000349 C78.2654096,89.0000349 78.5198649,88.8942092 78.707,88.706 L81.165,86.248 C81.5557414,85.8575347 81.5559653,85.2242415 81.1655,84.8335 C80.7750347,84.4427586 80.1417415,84.4425347 79.751,84.833 L79.75,84.835 Z" id="Shape" fill="#FFFFFF"></path>
        </g>
    </g>
</svg>

<svg width="122" height="122" viewBox="0 0 122 122" xmlns="http://www.w3.org/2000/svg">
    <g fill="none" fill-rule="evenodd">
        <circle fill="#F09233" cx="61" cy="61" r="61"/>
        <path d="M70.707 79.293a1 1 0 0 1 0 1.414l-4 4a1 1 0 0 1-1.414 0L62 81.414l-5.293 5.293a1 1 0 0 1-1.414 0L51 82.414l-5.293 5.293a1 1 0 0 1-1.414 0l-2.47-2.47a1 1 0 0 1 1.415-1.413L45 85.586l5.293-5.293a1 1 0 0 1 1.414 0L56 84.586l5.293-5.293a1 1 0 0 1 1.414 0L66 82.586 68.586 80 56 67.414 32.707 90.707a.997.997 0 0 1-1.414 0 1 1 0 0 1 0-1.414L55 65.586V32a1 1 0 0 1 1-1h16a1 1 0 0 1 1 1v20a1 1 0 0 1-1 1H60a1 1 0 0 1 0-2h11v-8H60a1 1 0 0 1 0-2h11v-8H57v32.586l13.707 13.707zm20 10l-17-17a1 1 0 0 0-1.414 0l-2.484 2.484a1 1 0 1 0 1.413 1.414L73 74.415l16.293 16.293a.997.997 0 0 0 1.414 0 1 1 0 0 0 0-1.414zM76 45a1 1 0 0 0 0 2h5.322l3.2 8H70a1 1 0 0 0 0 2h16a1 1 0 0 0 .93-1.372L83.076 46l3.852-9.628A1.003 1.003 0 0 0 86 35H76a1 1 0 0 0 0 2h8.523l-3.2 8H76zm3.75 39.835L78 86.585l-4.75-4.75a1 1 0 0 0-1.415 1.414l5.458 5.457a.997.997 0 0 0 1.414 0l2.458-2.458a1 1 0 0 0-1.414-1.415z" fill="#FFF"/>
    </g>
</svg>
